X:1
T: The Devil and the Dirk
C:J. Scott Skinner
R:Reel
Q: 232
K:D
M:4/4
L:1/8
|:d|D1/2D1/2D FD AD d2|AD FD CE EF|D1/2D1/2A FD AD d2|AF GE FD Dd|
D1/2D1/2D FD AD d2|AD FD CE EF|D1/2D1/2A FD AD d2|AF GE FD D:|
|:c'|d'd dd' c'c cc'|bB Bb aA Aa|gG Gg fF Ff|eB ed ce ac'|
d'd dd' c'c cc'|bB Bb aA Aa|ge ag fa d'b|af ge fd d:|
